X: 25619
T: Marriage May Become A Curse
R: polka
M: 2/4
K: Dmajor
|:AB/A/ FG/A/|BB A2|AB/c/ de|1 fe e2:|2 fe d2||
|:fg/f/ ed/c/|de/d/ cB/A/|B/c/d/e/ c/d/e/f/|1 d/e/f/g/ e2:|2 dc d2||

